X: 4
T: Drowsy Maggie
R: reel
M: 4/4
L: 1/8
K: Dmaj
|:E2BE dEBE|E2BE AFDF|E2BE dEBE|1BABc dAFD:|2BABc dAFA||d2fd B/c/d ec|defg afge|d2fd B/c/d ec|BABc dAFA|d2fd B/c/d ec|defg afge|afge fdec|BABc dAFA||dBfB dBfB|cAeA fAeA|dBfB dBfB|fef^g aecA|dBfB dBfB|cAeA fAeA|defd B/c/d ec|BABc dAFD||


Tune 27	Setting 27

